src/public/images/header-tablet-input-seach.svg

<svg width="20" height="20" viewBox="0 0 20 20" fill="none" xmlns="http://www.w3.org/2000/svg">
<path fill-rule="evenodd" clip-rule="evenodd" d="M16.2754 15.3912L13.5617 12.6776C13.4327 12.8388 13.2951 12.9927 13.1495 13.1387C13.0004 13.2882 12.8429 13.4294 12.6778 13.5614L15.3915 16.2751C15.6356 16.5192 16.0313 16.5192 16.2754 16.2751C16.5194 16.031 16.5194 15.6353 16.2754 15.3912Z" fill="#575775"/>
<path fill-rule="evenodd" clip-rule="evenodd" d="M12.4748 12.4746C12.7189 12.2305 13.1146 12.2305 13.3587 12.4746L13.5617 12.6776C14.3311 11.7155 14.7917 10.4944 14.7917 9.1665C14.7917 6.0599 12.2733 3.5415 9.16675 3.5415C6.06015 3.5415 3.54175 6.0599 3.54175 9.1665C3.54175 12.2731 6.06014 14.7915 9.16675 14.7915C10.4946 14.7915 11.7158 14.3308 12.6778 13.5614L12.4748 13.3584C12.2307 13.1144 12.2307 12.7186 12.4748 12.4746ZM4.79175 9.1665C4.79175 6.75026 6.7505 4.7915 9.16675 4.7915C11.583 4.7915 13.5417 6.75026 13.5417 9.1665C13.5417 10.3727 13.0544 11.464 12.2645 12.256C11.4718 13.0508 10.3771 13.5415 9.16675 13.5415C6.7505 13.5415 4.79175 11.5827 4.79175 9.1665Z" fill="#575775"/>
<path d="M13.3587 12.4746C13.1146 12.2305 12.7189 12.2305 12.4748 12.4746C12.2307 12.7186 12.2307 13.1144 12.4748 13.3584L12.6778 13.5614C12.8429 13.4294 13.0004 13.2882 13.1495 13.1387C13.2951 12.9927 13.4327 12.8388 13.5617 12.6776L13.3587 12.4746Z" fill="#575775"/>
</svg>

<svg xmlns="http://www.w3.org/2000/svg" width="20" height="20" fill="none"><path fill="#575775" fill-rule="evenodd" d="m16.275 15.391-2.713-2.713a5.67 5.67 0 0 1-.884.883l2.713 2.714a.625.625 0 1 0 .884-.884Z" clip-rule="evenodd"/><path fill="#575775" fill-rule="evenodd" d="M12.475 12.475a.625.625 0 0 1 .884 0l.203.203a5.625 5.625 0 1 0-.884.884l-.203-.204a.625.625 0 0 1 0-.883ZM4.792 9.166a4.375 4.375 0 1 1 8.75 0 4.375 4.375 0 0 1-8.75 0Z" clip-rule="evenodd"/><path fill="#575775" d="M13.359 12.475a.625.625 0 0 0-.884.883l.203.203a5.644 5.644 0 0 0 .884-.883l-.203-.203Z"/></svg>
